images/social_media/facebook_1.svg

<svg width="50" height="50" viewBox="0 0 50 50" fill="none" xmlns="http://www.w3.org/2000/svg">
<path d="M24.9702 0C28.4267 0 31.6746 0.655542 34.7139 1.96663C37.7533 3.27771 40.4052 5.06555 42.6698 7.33015C44.9344 9.59476 46.7223 12.2368 48.0334 15.2563C49.3445 18.2757 50 21.5137 50 24.9702C50 28.4267 49.3445 31.6746 48.0334 34.7139C46.7223 37.7533 44.9344 40.4052 42.6698 42.6698C40.4052 44.9344 37.7533 46.7223 34.7139 48.0334C31.6746 49.3445 28.4267 50 24.9702 50C21.5137 50 18.2757 49.3445 15.2563 48.0334C12.2368 46.7223 9.59476 44.9344 7.33015 42.6698C5.06555 40.4052 3.27771 37.7533 1.96663 34.7139C0.655542 31.6746 0 28.4267 0 24.9702C0 21.5137 0.655542 18.2757 1.96663 15.2563C3.27771 12.2368 5.06555 9.59476 7.33015 7.33015C9.59476 5.06555 12.2368 3.27771 15.2563 1.96663C18.2757 0.655542 21.5137 0 24.9702 0ZM34.3862 10.9058H29.0822C28.0493 10.9058 27.0957 11.0846 26.2217 11.4422C25.3476 11.7998 24.5828 12.2765 23.9273 12.8725C23.2718 13.4684 22.7652 14.1438 22.4076 14.8987C22.0501 15.6536 21.8713 16.4084 21.8713 17.1633V20.3218H17.1633V26.5197H21.8713V39.0346H28.1287V26.5197H32.7771V20.3218H28.1287V18.7128C28.1287 18.236 28.3174 17.8586 28.6949 17.5805C29.0723 17.3023 29.4001 17.1633 29.6782 17.1633H34.3862V10.9058Z" fill="white"/>
</svg>

<svg width="50" height="50" fill="none" xmlns="http://www.w3.org/2000/svg"><path d="M24.97 0c3.457 0 6.705.656 9.744 1.967 3.04 1.31 5.691 3.099 7.956 5.363 2.264 2.265 4.052 4.907 5.363 7.926C49.344 18.276 50 21.514 50 24.97c0 3.457-.656 6.705-1.967 9.744-1.31 3.04-3.099 5.691-5.363 7.956-2.265 2.264-4.917 4.052-7.956 5.363C31.674 49.344 28.427 50 24.97 50c-3.456 0-6.694-.656-9.714-1.967-3.02-1.31-5.661-3.099-7.926-5.363-2.264-2.265-4.052-4.917-5.363-7.956C.656 31.674 0 28.427 0 24.97c0-3.456.656-6.694 1.967-9.714 1.31-3.02 3.099-5.661 5.363-7.926 2.265-2.264 4.907-4.052 7.926-5.363C18.276.656 21.514 0 24.97 0Zm9.416 10.906h-5.304c-1.033 0-1.986.179-2.86.536a7.721 7.721 0 0 0-2.295 1.43 6.469 6.469 0 0 0-1.52 2.027c-.357.755-.536 1.51-.536 2.264v3.159h-4.708v6.198h4.708v12.515h6.258V26.52h4.648v-6.198H28.13v-1.61c0-.476.188-.853.566-1.131.377-.279.705-.418.983-.418h4.708v-6.257Z" fill="#fff"/></svg>
